gitgui/data/icons/scalable/actions/cross-filled-symbolic.svg

<?xml version="1.0" encoding="UTF-8"?>
<svg height="16px" viewBox="0 0 16 16" width="16px" xmlns="http://www.w3.org/2000/svg">
    <path d="m 8 1 c -3.851562 0 -6.96875 3.117188 -6.96875 6.96875 s 3.117188 6.96875 6.96875 6.96875 s 6.96875 -3.117188 6.96875 -6.96875 s -3.117188 -6.96875 -6.96875 -6.96875 z m -3 3.96875 h 1 h 0.03125 c 0.253906 0.011719 0.511719 0.128906 0.6875 0.3125 l 1.28125 1.28125 l 1.3125 -1.28125 c 0.265625 -0.230469 0.445312 -0.304688 0.6875 -0.3125 h 1 v 1 c 0 0.285156 -0.035156 0.550781 -0.25 0.75 l -1.28125 1.28125 l 1.25 1.25 c 0.1875 0.1875 0.28125 0.453125 0.28125 0.71875 v 1 h -1 c -0.265625 0 -0.53125 -0.09375 -0.71875 -0.28125 l -1.28125 -1.28125 l -1.28125 1.28125 c -0.1875 0.1875 -0.453125 0.28125 -0.71875 0.28125 h -1 v -1 c 0 -0.265625 0.09375 -0.53125 0.28125 -0.71875 l 1.28125 -1.25 l -1.28125 -1.28125 c -0.210938 -0.195312 -0.304688 -0.46875 -0.28125 -0.75 z m 0 0" fill="#222222"/>
</svg>

<svg xmlns="http://www.w3.org/2000/svg" width="16" height="16"><path fill="#222" d="M8 1C4.148 1 1.031 4.117 1.031 7.969S4.148 14.937 8 14.937s6.969-3.117 6.969-6.968S11.852 1 8 1zM5 4.969h1.031c.254.011.512.129.688.312L8 6.563 9.313 5.28c.265-.23.445-.304.687-.312h1v1c0 .285-.035.55-.25.75L9.469 8l1.25 1.25c.187.188.281.453.281.719v1h-1c-.266 0-.531-.094-.719-.281L8 9.405l-1.281 1.281A1.016 1.016 0 0 1 6 10.97H5v-1c0-.266.094-.531.281-.719L6.563 8 5.28 6.719a.904.904 0 0 1-.28-.75zm0 0"/></svg>
